X:31
T:Driving the Steers
T:Ioman nan g\`amhna
R:Slow Air
S:Simon Fraser Collection
N:No.120
O:Scottish
M:9/8
L:1/8
Q:3/8=50
K:F
(3f/e/d/|dAA A>BA/G/ FDD|cAA A>GA/c/ d>fe/d/|cAF A2 G/E/ FGA|
A2 G/F/ GA~c d2 (3f/e/d/|cAA A>BA/G/ FDD|cAA A>GA/c/ d>fe/d/|
cAF A2 G/E/ FGA|A2 G/F/ GAc d2||
c/B/|AAA f>gf edc|d2 c/A/ f>ef/g/ a2 c/B/|
AAA f>gf edc|d2 c/B/ A>GA/c/ d2 c/B/|AAA f>gf edc|
d2 c/A/ f>ef/g/ a2 c/B/|
Afa f/a/g/f/e/d/ cAf|A2 G/F/ GAc d2||

